img/grusp.svg

<svg width="93" height="24" viewBox="0 0 93 24" xmlns="http://www.w3.org/2000/svg"><title>Artboard</title><path d="M92.066 7.2c0-5.253-3.341-6.94-8.367-6.94h-6.973c-.843 0-1.621.617-1.751 1.491l-2.659 20.271c-.13 1.037.422 1.718 1.362 1.718h3.243c.973 0 1.719-.649 1.849-1.687l.681-5.188h2.011c5.968-.001 10.604-3.179 10.604-9.665zm-9.371 4.086h-2.531l.714-5.449h2.238c1.751 0 3.015.747 3.015 2.367 0 2.109-1.555 3.082-3.436 3.082zM10.962 0C3.276 0 0 5.352 0 15.016c0 6.227 2.562 8.982 7.816 8.982 6.94 0 9.113-4.086 9.664-8.594l.325-2.465c.097-.875-.389-1.524-1.394-1.524h-5.417c-1.232 0-1.686.746-1.816 1.751l-.097.713c-.129 1.006.454 1.524 1.395 1.524h1.103l-.033.227c-.259 1.85-1.103 2.627-2.983 2.627-1.33 0-2.011-1.199-2.011-3.891 0-4.25.779-8.627 3.665-8.627 1.232 0 2.14 1.136 2.14 2.919 0 1.231.487 1.362 1.654 1.167l2.79-.454c1.394-.227 1.686-.648 1.686-2.367C18.485 3.081 16.832 0 10.962 0zm39.402 18.096c-1.395.131-3.374.324-4.995.324-5.837 0-8.821-.713-10.475-2.626l-1.135-1.233c2.335-1.426 4.378-3.6 4.378-7.361 0-5.253-3.34-6.94-8.367-6.94h-6.648c-1.005 0-1.622.617-1.752 1.491l-2.659 20.302c-.129.876.325 1.687 1.33 1.687h3.308c1.038 0 1.686-.843 1.816-1.718l.747-5.774h1.491l2.562 3.244c2.011 2.53 5.026 4.507 13.718 4.507 2.724 0 4.67-.227 5.935-.355 1.135-.131 1.687-.908 1.783-1.72l.324-2.399c.098-.845-.258-1.526-1.361-1.429zm-21.599-6.81H26.56l.714-5.449h1.913c1.718 0 3.016.747 3.016 2.367-.001 2.109-1.557 3.082-3.438 3.082zm61.546 9.668h-.449c-.234 0-.322.138-.348.31l-.215 1.63c-.019.152-.006.209.164.209h.24c.158 0 .195-.057.215-.215l.063-.468h.075l.14.48c.044.146.082.202.271.202h.246c.14 0 .14-.083.102-.215l-.178-.574c.254-.128.431-.349.431-.722 0-.48-.303-.637-.757-.637zm-.122.98h-.145l.057-.437h.119c.158 0 .247.062.247.184.001.171-.125.253-.278.253zm.184-1.771c-1.277 0-2.187.897-2.187 2.193 0 .998.632 1.644 1.681 1.644 1.284 0 2.199-.879 2.199-2.174 0-1.006-.644-1.663-1.693-1.663zm-.435 3.312c-.727 0-1.163-.461-1.163-1.182 0-.955.626-1.605 1.528-1.605.733 0 1.177.469 1.177 1.201-.001.954-.639 1.586-1.542 1.586zM53.088.259h-2.367c-1.037 0-1.687.649-1.784 1.524l-1.069 8.076c-.227 1.751-.779 2.659-1.881 2.659-1.103 0-1.459-.908-1.233-2.659l1.039-7.913c.129-.876-.292-1.687-1.33-1.687h-2.367c-1.038 0-1.654.811-1.784 1.687l-1.006 7.588c-.648 4.897 1.103 7.588 6.064 7.588 4.995 0 7.427-2.691 8.076-7.588l1.005-7.622c.129-.875-.326-1.653-1.363-1.653zm10.733 5.157c1.524 0 2.433.844 2.433 2.433 0 .584.486.648 1.329.519l3.211-.519c1.167-.195 1.589-.941 1.557-1.784C72.221 2.335 69.724 0 64.373 0c-6.357 0-9.309 4.378-9.309 8.172 0 7.394 9.567 5.675 9.567 8.431 0 .877-.39 2.012-2.53 2.012-1.719 0-2.303-1.104-2.303-2.075 0-.876-.615-.909-1.588-.746l-2.983.486c-1.298.228-1.493 1.069-1.46 1.783.193 3.114 2.237 5.999 7.459 5.935 7.491-.064 9.924-3.6 9.924-7.588 0-7.33-9.535-6.162-9.535-8.951 0-1.135.682-2.043 2.206-2.043z"/></svg>

<?xml version="1.0" encoding="UTF-8"?>
<svg width="93px" height="24px" viewBox="0 0 93 24" version="1.1" xmlns="http://www.w3.org/2000/svg" xmlns:xlink="http://www.w3.org/1999/xlink">
    <!-- Generator: Sketch 42 (36781) - http://www.bohemiancoding.com/sketch -->
    <title>Artboard</title>
    <desc>Created with Sketch.</desc>
    <defs></defs>
    <g id="Page-1" stroke="none" stroke-width="1" fill="none" fill-rule="evenodd">
        <g id="Artboard" fill-rule="nonzero" fill="#000000">
            <path d="M92.066,7.2 C92.066,1.947 88.725,0.26 83.699,0.26 L76.726,0.26 C75.883,0.26 75.105,0.877 74.975,1.751 L72.316,22.022 C72.186,23.059 72.738,23.74 73.678,23.74 L76.921,23.74 C77.894,23.74 78.64,23.091 78.77,22.053 L79.451,16.865 L81.462,16.865 C87.43,16.864 92.066,13.686 92.066,7.2 Z M82.695,11.286 L80.164,11.286 L80.878,5.837 L83.116,5.837 C84.867,5.837 86.131,6.584 86.131,8.204 C86.131,10.313 84.576,11.286 82.695,11.286 Z M10.962,0 C3.276,0 0,5.352 0,15.016 C0,21.243 2.562,23.998 7.816,23.998 C14.756,23.998 16.929,19.912 17.48,15.404 L17.805,12.939 C17.902,12.064 17.416,11.415 16.411,11.415 L10.994,11.415 C9.762,11.415 9.308,12.161 9.178,13.166 L9.081,13.879 C8.952,14.885 9.535,15.403 10.476,15.403 L11.579,15.403 L11.546,15.63 C11.287,17.48 10.443,18.257 8.563,18.257 C7.233,18.257 6.552,17.058 6.552,14.366 C6.552,10.116 7.331,5.739 10.217,5.739 C11.449,5.739 12.357,6.875 12.357,8.658 C12.357,9.889 12.844,10.02 14.011,9.825 L16.801,9.371 C18.195,9.144 18.487,8.723 18.487,7.004 C18.485,3.081 16.832,0 10.962,0 Z M50.364,18.096 C48.969,18.227 46.99,18.42 45.369,18.42 C39.532,18.42 36.548,17.707 34.894,15.794 L33.759,14.561 C36.094,13.135 38.137,10.961 38.137,7.2 C38.137,1.947 34.797,0.26 29.77,0.26 L23.122,0.26 C22.117,0.26 21.5,0.877 21.37,1.751 L18.711,22.053 C18.582,22.929 19.036,23.74 20.041,23.74 L23.349,23.74 C24.387,23.74 25.035,22.897 25.165,22.022 L25.912,16.248 L27.403,16.248 L29.965,19.492 C31.976,22.022 34.991,23.999 43.683,23.999 C46.407,23.999 48.353,23.772 49.618,23.644 C50.753,23.513 51.305,22.736 51.401,21.924 L51.725,19.525 C51.823,18.68 51.467,17.999 50.364,18.096 Z M28.765,11.286 L26.56,11.286 L27.274,5.837 L29.187,5.837 C30.905,5.837 32.203,6.584 32.203,8.204 C32.202,10.313 30.646,11.286 28.765,11.286 Z M90.311,20.954 L89.862,20.954 C89.628,20.954 89.54,21.092 89.514,21.264 L89.299,22.894 C89.28,23.046 89.293,23.103 89.463,23.103 L89.703,23.103 C89.861,23.103 89.898,23.046 89.918,22.888 L89.981,22.42 L90.056,22.42 L90.196,22.9 C90.24,23.046 90.278,23.102 90.467,23.102 L90.713,23.102 C90.853,23.102 90.853,23.019 90.815,22.887 L90.637,22.313 C90.891,22.185 91.068,21.964 91.068,21.591 C91.068,21.111 90.765,20.954 90.311,20.954 Z M90.189,21.934 L90.044,21.934 L90.101,21.497 L90.22,21.497 C90.378,21.497 90.467,21.559 90.467,21.681 C90.468,21.852 90.342,21.934 90.189,21.934 Z M90.373,20.163 C89.096,20.163 88.186,21.06 88.186,22.356 C88.186,23.354 88.818,24 89.867,24 C91.151,24 92.066,23.121 92.066,21.826 C92.066,20.82 91.422,20.163 90.373,20.163 Z M89.938,23.475 C89.211,23.475 88.775,23.014 88.775,22.293 C88.775,21.338 89.401,20.688 90.303,20.688 C91.036,20.688 91.48,21.157 91.48,21.889 C91.479,22.843 90.841,23.475 89.938,23.475 Z M53.088,0.259 L50.721,0.259 C49.684,0.259 49.034,0.908 48.937,1.783 L47.868,9.859 C47.641,11.61 47.089,12.518 45.987,12.518 C44.884,12.518 44.528,11.61 44.754,9.859 L45.793,1.946 C45.922,1.07 45.501,0.259 44.463,0.259 L42.096,0.259 C41.058,0.259 40.442,1.07 40.312,1.946 L39.306,9.534 C38.658,14.431 40.409,17.122 45.37,17.122 C50.365,17.122 52.797,14.431 53.446,9.534 L54.451,1.912 C54.58,1.037 54.125,0.259 53.088,0.259 Z M63.821,5.416 C65.345,5.416 66.254,6.26 66.254,7.849 C66.254,8.433 66.74,8.497 67.583,8.368 L70.794,7.849 C71.961,7.654 72.383,6.908 72.351,6.065 C72.221,2.335 69.724,0 64.373,0 C58.016,0 55.064,4.378 55.064,8.172 C55.064,15.566 64.631,13.847 64.631,16.603 C64.631,17.48 64.241,18.615 62.101,18.615 C60.382,18.615 59.798,17.511 59.798,16.54 C59.798,15.664 59.183,15.631 58.21,15.794 L55.227,16.28 C53.929,16.508 53.734,17.349 53.767,18.063 C53.96,21.177 56.004,24.062 61.226,23.998 C68.717,23.934 71.15,20.398 71.15,16.41 C71.15,9.08 61.615,10.248 61.615,7.459 C61.615,6.324 62.297,5.416 63.821,5.416 Z" id="Shape"></path>
        </g>
    </g>
</svg>
